X:566
T:Reel 566
M:4/4
K:Dmaj
L:1/8
AG|FD (3DDD D2D2|A,D (3DCD EFGE|FD (3DDD D2DF|EDCE =cAGE|FD (3DDD D2D2|FDFA d2cd|ecdB cABG|EDCD EFGE|Addc d2cd|ecdB cAGE|Addc d2df|edcd efdB|Addc d2d2|Addc  (3BBB AB|cdec dBcA|E^GED cBAG|
